X:281
T:Polska efter August Nyholm
T:(SvL Häls. 281)
R:Polska
B:Svenska Låtar Hälsingland
O:Delsbo, Hälsingland
S:August Nyholm
M:3/4
L:1/16
K:D
vAdfd dcec cBdB|A2a2 a2g2 g2f2|Adfd dcec cBdB|A2a2 a2g2 g2f2|
g4 (bg)eg afdf|(ag)ec d4 z4:| |:dcdf edeg fefa|gfge ^defe =dcBA|
dcdf edeg fefa|gfge ^defe =dcBA|A4 B4 c4|e2d2 d4 z4:|

